X: 37757
T: Something
R: reel
M: 4/4
K: Eminor
"Em"e2 (Bd) e(Bd)e|"Em"(Bd)e(g"D"f)e d2|1 "Em"B2 (EG) B(EG)B|(EG)A(B"Bm"A)G F2:|
[2 "Em"(Bc)(AB) GA(FG)||"D"AB(FG) "Em"E2 (ef)|:"Em"(gf)eg (fe)"D"Be|"Em"(BA)G(B"D"A)G(FG)|
"Em"(EF)GA (BA)Bc|"Am"(cB)cd "Em"ed(ef)|"Am"(de)(cd) "Em"(Bc)AB|GA(FG) (EF)DE|
"C"CD(EG) "Am"Ace(a|1 "Em"(gf)(ef) "Am"c2 (Bc):|2 a4) "Em"(g f2) "D"F||"Em"G3 E4 E/E/||

